actions/22x22-dark/chronometer-pause.svg

<svg xmlns="http://www.w3.org/2000/svg" viewBox="0 0 22 22">
 <defs id="defs3051">
   <style type="text/css" id="current-color-scheme">
     .ColorScheme-Text {
       color:#f2f2f2;
     }
     </style>
 </defs>
   <path
      style="fill:currentColor;fill-opacity:1;stroke:none"
      d="m9.3691406 3c-.2532435 0-.4609375.2035468-.4609375.4609375v.3808594c0 .2570245.207694.4648437.4609375.4648437h.1601563v.2675782c.0002472.3860998.2448502.4183682.3671875.4101562.0207817-.0027465.0417489-.006836.0644531-.0097656h.0039063c.4343092-.059507 1.1534192-.1167258 1.9785152-.0117188 0 0 .528781.0973998.527344-.3886718v-.2695313h.162109c.25351 0 .460938-.2054999.460938-.4628906v-.3808594c-.000027-.257171-.209391-.4609375-.462891-.4609375zm5.2402344 1.7011719c-.042668.0086056-.075387.0355997-.097656.0605469l-.03711.0527343-.314453.4511719c-.001831.001831-.17884.2804316.103516.4277344.403229.1984422 1.142669.6175091 1.851562 1.2929687v-.0019531s.254478.256808.433594.0019531l.341797-.4902343c.119179-.1721584-.034852-.2909703-.050781-.3027344l-2.070313-1.4472656h-.001953c-.063746-.0443557-.115535-.0535276-.158203-.0449219zm-3.609375.8613281c-3.7104274 0-6.71875 3.007993-6.71875 6.71875 0 3.709832 3.0082951 6.71875 6.71875 6.71875 3.7104 0 6.71875-3.008945 6.71875-6.71875 0-3.710757-3.00835-6.71875-6.71875-6.71875zm-2.75 4.0449219h1.830078v5.4921871h-1.830078zm3.669922 0h1.830078v5.4921871h-1.830078z"
      class="ColorScheme-Text" />
</svg>

<svg xmlns="http://www.w3.org/2000/svg" viewBox="0 0 22 22">
  <defs id="defs3051">
    <style type="text/css" id="current-color-scheme">
      .ColorScheme-Text {
        color:#f2f2f2
      }
      </style>
  </defs>
 <path 
     style="fill:currentColor;fill-opacity:1;stroke:none"      
	 class="ColorScheme-Text"
        d="M 9.3691406 3 C 9.1158971 3 8.9082031 3.2035468 8.9082031 3.4609375 L 8.9082031 3.8417969 C 8.9082031 4.0988214 9.1158971 4.3066406 9.3691406 4.3066406 L 9.5292969 4.3066406 L 9.5292969 4.5742188 C 9.5295441 4.9603186 9.7741471 4.992587 9.8964844 4.984375 C 9.9172661 4.9816285 9.9382333 4.977539 9.9609375 4.9746094 C 9.9611938 4.9746094 9.9648438 4.9746094 9.9648438 4.9746094 C 10.399153 4.9151024 11.118263 4.8578836 11.943359 4.9628906 C 11.943359 4.9628906 12.47214 5.0602904 12.470703 4.5742188 L 12.470703 4.3046875 L 12.632812 4.3046875 C 12.886322 4.3046875 13.09375 4.0991876 13.09375 3.8417969 L 13.09375 3.4609375 C 13.093723 3.2037665 12.884359 3 12.630859 3 L 9.3691406 3 z M 14.609375 4.7011719 C 14.566707 4.7097775 14.533988 4.7367716 14.511719 4.7617188 L 14.474609 4.8144531 L 14.160156 5.265625 C 14.158325 5.267456 13.981316 5.5460566 14.263672 5.6933594 C 14.666901 5.8918016 15.406341 6.3108685 16.115234 6.9863281 L 16.115234 6.984375 C 16.115234 6.984375 16.369712 7.241183 16.548828 6.9863281 L 16.890625 6.4960938 C 17.009804 6.3239354 16.855773 6.2051235 16.839844 6.1933594 L 14.769531 4.7460938 L 14.767578 4.7460938 C 14.703832 4.7017381 14.652043 4.6925662 14.609375 4.7011719 z M 11 5.5625 C 7.2895726 5.5625 4.28125 8.570493 4.28125 12.28125 C 4.28125 15.991082 7.2895451 19 11 19 C 14.7104 19 17.71875 15.991055 17.71875 12.28125 C 17.71875 8.570493 14.7104 5.5625 11 5.5625 z M 8.25 9.6074219 L 10.080078 9.6074219 L 10.080078 15.099609 L 8.25 15.099609 L 8.25 9.6074219 z M 11.919922 9.6074219 L 13.75 9.6074219 L 13.75 15.099609 L 11.919922 15.099609 L 11.919922 9.6074219 z "
     />
</svg>
